X:44
T:Maudit Sia L'Amour
M:3/4
L:1/4
N:Assez Lent
N:La Bourre 4th edition 1929, page 53
Z:Steve Mansfield www.lesession.co.uk May 2012
K:A
c A B | c2 c | B2 z | c A B | c2 c |
B3 - | B2 z | B c d | e2 d | (c2 A) | c3 |
B2 z | E A B | c2 c | B A c | B2 B | !fermata! A3 |]

